public/svg/about-home.svg

<svg width="57" height="74" viewBox="0 0 57 74" fill="none" xmlns="http://www.w3.org/2000/svg">
<path d="M23.5006 19.8824C23.5006 22.6246 25.7316 24.8555 28.4737 24.8555C31.2159 24.8555 33.4468 22.6246 33.4468 19.8824C33.4468 17.1402 31.2159 14.9093 28.4737 14.9093C25.7316 14.9093 23.5006 17.1401 23.5006 19.8824ZM30.2795 19.8824C30.2795 20.8781 29.4694 21.6882 28.4737 21.6882C27.478 21.6882 26.6679 20.8781 26.6679 19.8824C26.6679 18.8866 27.478 18.0766 28.4737 18.0766C29.4694 18.0766 30.2795 18.8866 30.2795 19.8824Z" fill="#21558A"/>
<path d="M47.7321 20.6683L29.4673 5.95366C28.8873 5.48648 28.0603 5.48648 27.4801 5.95366L9.21549 20.6683C8.53452 21.2169 8.42712 22.2139 8.97578 22.895C9.52459 23.5762 10.5214 23.6836 11.2027 23.1348L13.3617 21.3955V40.4296C13.3617 41.3042 14.0707 42.0132 14.9453 42.0132H42.0022C42.8769 42.0132 43.5859 41.3042 43.5859 40.4296V21.3955L45.7449 23.1348C46.0377 23.3706 46.3887 23.4853 46.7375 23.4853C47.2002 23.4853 47.6588 23.2835 47.9718 22.895C48.5203 22.2138 48.413 21.2169 47.7321 20.6683ZM31.5096 38.8458H25.4379V30.1357H31.5096V38.8458ZM40.4186 38.8458H34.677V28.552C34.677 27.6774 33.9679 26.9684 33.0933 26.9684H23.8542C22.9796 26.9684 22.2706 27.6774 22.2706 28.552V38.8458H16.529V18.8436L28.4738 9.2206L40.4186 18.8436V38.8458Z" fill="#21558A"/>
<path d="M44.4087 61.1534L42.2656 63.0365L41.7115 62.4779C41.0957 61.8566 40.0928 61.8526 39.4719 62.4684C38.8508 63.0843 38.8465 64.087 39.4626 64.7079L41.0664 66.3253C41.375 66.6365 41.7826 66.7939 42.191 66.7939C42.5632 66.7939 42.9362 66.6635 43.2361 66.4L46.4993 63.5329C47.1562 62.9556 47.221 61.955 46.6437 61.2979C46.0663 60.6408 45.0657 60.5763 44.4087 61.1534Z" fill="#21558A"/>
<path d="M44.4087 53.7193L42.2656 55.6024L41.7115 55.0438C41.0957 54.4227 40.0928 54.4185 39.4719 55.0343C38.8508 55.65 38.8465 56.6528 39.4626 57.2738L41.0664 58.8912C41.375 59.2025 41.7826 59.3598 42.191 59.3598C42.5632 59.3598 42.9362 59.2294 43.2361 58.9659L46.4993 56.0988C47.1562 55.5215 47.221 54.5209 46.6437 53.8638C46.0663 53.2066 45.0657 53.1421 44.4087 53.7193Z" fill="#21558A"/>
<path d="M44.4087 46.2852L42.2656 48.1683L41.7115 47.6097C41.0957 46.9885 40.0928 46.9846 39.4719 47.6002C38.8508 48.2161 38.8465 49.2188 39.4626 49.8398L41.0664 51.4571C41.375 51.7684 41.7826 51.9257 42.191 51.9257C42.5632 51.9257 42.9362 51.7953 43.2361 51.5318L46.4993 48.6647C47.1562 48.0874 47.221 47.0868 46.6437 46.4297C46.0663 45.7725 45.0657 45.708 44.4087 46.2852Z" fill="#21558A"/>
<path d="M50.9735 0H5.97399C2.67984 0 0 2.67984 0 5.97399V68.0262C0 71.3202 2.67984 74.0001 5.97399 74.0001H50.9735C54.2676 74.0001 56.9475 71.3203 56.9475 68.0262V5.97399C56.9475 2.67984 54.2676 0 50.9735 0ZM53.7801 68.026C53.7801 69.5737 52.5211 70.8327 50.9735 70.8327H5.97399C4.42632 70.8327 3.16732 69.5737 3.16732 68.026V5.97399C3.16732 4.42632 4.42632 3.16732 5.97399 3.16732H50.9735C52.5211 3.16732 53.7801 4.42632 53.7801 5.97399V68.026Z" fill="#21558A"/>
<path d="M31.8632 50.0705H11.4934C10.6188 50.0705 9.90979 49.3615 9.90979 48.4869C9.90979 47.6122 10.6188 46.9032 11.4934 46.9032H31.8632C32.7378 46.9032 33.4468 47.6122 33.4468 48.4869C33.4468 49.3615 32.7378 50.0705 31.8632 50.0705Z" fill="#5F9FE1"/>
<path d="M31.8632 57.5047H11.4934C10.6188 57.5047 9.90979 56.7957 9.90979 55.9211C9.90979 55.0464 10.6188 54.3374 11.4934 54.3374H31.8632C32.7378 54.3374 33.4468 55.0464 33.4468 55.9211C33.4468 56.7957 32.7378 57.5047 31.8632 57.5047Z" fill="#5F9FE1"/>
<path d="M31.8632 64.9389H11.4934C10.6188 64.9389 9.90979 64.2299 9.90979 63.3553C9.90979 62.4807 10.6188 61.7716 11.4934 61.7716H31.8632C32.7378 61.7716 33.4468 62.4807 33.4468 63.3553C33.4468 64.2299 32.7378 64.9389 31.8632 64.9389Z" fill="#5F9FE1"/>
</svg>

<svg xmlns="http://www.w3.org/2000/svg" width="57" height="74" fill="none"><path fill="#21558A" d="M23.5 19.882a4.98 4.98 0 0 0 4.974 4.973 4.98 4.98 0 0 0 4.973-4.973 4.98 4.98 0 0 0-4.973-4.973 4.98 4.98 0 0 0-4.973 4.973m6.78 0c0 .996-.81 1.806-1.806 1.806s-1.806-.81-1.806-1.806c0-.995.81-1.805 1.806-1.805.995 0 1.805.81 1.805 1.805"/><path fill="#21558A" d="M47.732 20.668 29.467 5.954a1.584 1.584 0 0 0-1.987 0L9.215 20.668a1.584 1.584 0 0 0 1.988 2.467l2.159-1.74V40.43c0 .874.709 1.583 1.583 1.583h27.057c.875 0 1.584-.709 1.584-1.583V21.396l2.159 1.739a1.58 1.58 0 0 0 2.227-.24 1.584 1.584 0 0 0-.24-2.227M31.51 38.846h-6.072v-8.71h6.072zm8.909 0h-5.742V28.552c0-.875-.71-1.584-1.584-1.584h-9.239c-.874 0-1.583.71-1.583 1.584v10.294h-5.742V18.844L28.474 9.22l11.945 9.623zM44.409 61.153l-2.143 1.883-.554-.558a1.583 1.583 0 1 0-2.25 2.23l1.604 1.617a1.58 1.58 0 0 0 2.17.075l3.263-2.867a1.584 1.584 0 0 0-2.09-2.38M44.409 53.72l-2.143 1.882-.554-.558a1.584 1.584 0 1 0-2.25 2.23l1.604 1.617a1.58 1.58 0 0 0 2.17.075l3.263-2.867a1.584 1.584 0 0 0-2.09-2.38M44.409 46.285l-2.143 1.883-.554-.558a1.584 1.584 0 0 0-2.25 2.23l1.604 1.617a1.58 1.58 0 0 0 2.17.075l3.263-2.867a1.584 1.584 0 0 0-2.09-2.38"/><path fill="#21558A" d="M50.974 0h-45A5.98 5.98 0 0 0 0 5.974v62.052A5.98 5.98 0 0 0 5.974 74h45a5.98 5.98 0 0 0 5.974-5.974V5.974A5.98 5.98 0 0 0 50.974 0m2.806 68.026a2.81 2.81 0 0 1-2.806 2.807h-45a2.81 2.81 0 0 1-2.807-2.807V5.974a2.81 2.81 0 0 1 2.807-2.807h45a2.81 2.81 0 0 1 2.806 2.807z"/><path fill="#5F9FE1" d="M31.863 50.07h-20.37a1.584 1.584 0 1 1 0-3.167h20.37a1.584 1.584 0 0 1 0 3.168M31.863 57.505h-20.37a1.584 1.584 0 1 1 0-3.168h20.37a1.584 1.584 0 0 1 0 3.168M31.863 64.939h-20.37a1.584 1.584 0 1 1 0-3.167h20.37a1.584 1.584 0 0 1 0 3.167"/></svg>
